svgs/vanced_manager.svg

<svg width="24" height="24" viewBox="0 0 24 24" fill="none" xmlns="http://www.w3.org/2000/svg">
<path fill-rule="evenodd" clip-rule="evenodd" d="M9.29501 5.82647L9.29701 5.80845C6.87099 5.81213 5.60453 5.86626 4.78935 6.66384C4.77375 6.6791 4.75831 6.69454 4.74304 6.71015C3.88739 7.58468 3.88739 8.97862 3.88739 11.7665C3.88739 14.5544 3.88739 15.9483 4.74304 16.8228C4.75831 16.8384 4.77375 16.8539 4.78935 16.8691C5.66389 17.7248 7.05782 17.7248 9.8457 17.7248H9.91539C10.0206 17.6217 10.1398 17.5295 10.2724 17.4511L10.532 17.2937L19.1951 12.057L19.3269 11.9771L19.3291 11.9757L19.8559 11.6545L19.8559 11.5823C19.8555 8.91678 19.8368 7.56521 19.0002 6.71015C18.985 6.69454 18.9695 6.6791 18.9539 6.66384C18.3221 6.04565 17.4192 5.87409 15.9153 5.82647H9.29501ZM13.8976 17.7248C14.2772 17.7248 14.631 17.7248 14.9612 17.7226L19.7941 14.5872C19.8358 14.0881 19.8493 13.5078 19.8538 12.8271L19.8537 12.8271L19.8476 12.8308L19.7124 12.9128L11.752 17.7248H13.8976ZM18.9539 16.8691C18.4773 17.3355 17.8463 17.5477 16.9194 17.6442L19.5368 15.9462C19.4125 16.292 19.24 16.5778 19.0002 16.8228C18.985 16.8384 18.9695 16.8539 18.9539 16.8691ZM11.1736 9.84072L13.7551 11.3653C14.0708 11.5525 14.0708 12.0186 13.754 12.2045L11.1736 13.7291C10.8579 13.9151 10.463 13.6838 10.463 13.3095V10.2603C10.463 9.88841 10.8579 9.65477 11.1736 9.84072Z" fill="black"/>
<path d="M10.4119 4.82647H12.7601L11.7154 4.13667C11.3047 3.892 10.7802 4.03291 10.5411 4.45308L10.5223 4.48511C10.4611 4.59311 10.4249 4.70932 10.4119 4.82647Z" fill="black"/>
<path d="M20.8478 10.1658L21.1496 10.3649C22.3414 11.1527 22.3339 12.9384 21.1371 13.716L11.6553 19.8674C11.2447 20.1082 10.7189 19.9622 10.4848 19.5407L10.466 19.5074C10.2306 19.0872 10.3733 18.5505 10.7852 18.3097L11.0494 18.1495L19.7124 12.9128L19.8476 12.8308L19.8538 12.8271L19.8537 12.8284L20.8558 12.2185L20.8559 11.6969C20.8559 11.147 20.8559 10.6367 20.8478 10.1658Z" fill="black"/>
<rect x="6.5" y="2.5" width="11" height="6" rx="1.5" stroke="black"/>
</svg>

<svg xmlns="http://www.w3.org/2000/svg" width="24" height="24" fill="none" viewBox="0 0 24 24"><path fill="#000" fill-rule="evenodd" d="m9.295 5.826.002-.018c-2.426.004-3.692.058-4.508.856l-.046.046c-.856.875-.856 2.269-.856 5.057 0 2.787 0 4.181.856 5.056l.046.046c.875.856 2.269.856 5.057.856h.07a1.86 1.86 0 0 1 .356-.274l.26-.157 8.663-5.237.132-.08.002-.001.527-.322v-.072c0-2.665-.02-4.017-.856-4.872a2.695 2.695 0 0 0-.046-.046c-.632-.618-1.535-.79-3.039-.838h-6.62m4.603 11.899c.38 0 .733 0 1.063-.002l4.833-3.136c.042-.499.055-1.08.06-1.76l-.006.004-.136.082-7.96 4.812h2.146m5.056-.856c-.477.466-1.108.679-2.035.775l2.618-1.698a2.357 2.357 0 0 1-.583.923m-7.78-7.028 2.581 1.524a.49.49 0 0 1-.001.84l-2.58 1.524a.474.474 0 0 1-.711-.42V10.26c0-.372.395-.605.71-.42" clip-rule="evenodd"/><path fill="#000" d="M10.412 4.826h2.348l-1.045-.69a.847.847 0 0 0-1.174.317l-.019.032a.89.89 0 0 0-.11.341m10.436 5.34.302.199c1.191.788 1.184 2.573-.013 3.351l-9.482 6.151a.847.847 0 0 1-1.17-.326l-.019-.034a.888.888 0 0 1 .32-1.197l.263-.16 8.663-5.237.136-.082.006-.004v.001l1.002-.61v-.521c0-.55 0-1.06-.008-1.531"/><rect width="11" height="6" x="6.5" y="2.5" stroke="#000" rx="1.5"/></svg>
